app/graphics/WorldClock_Placeholder.svg

<svg xmlns="http://www.w3.org/2000/svg" xmlns:xlink="http://www.w3.org/1999/xlink" xmlns:sketch="http://www.bohemiancoding.com/sketch/ns" width="100px" height="100px" viewBox="0 0 100 100" version="1.1">
    <!-- Generator: Sketch 3.3.3 (12072) - http://www.bohemiancoding.com/sketch -->
    <title>Placeholder Icons</title>
    <desc>Created with Sketch.</desc>
    <defs/>
    <g id="Page-1" stroke="none" stroke-width="1" fill="none" fill-rule="evenodd" sketch:type="MSPage">
        <g id="Placeholder-Icons" sketch:type="MSArtboardGroup">
            <g id="Timer-+-Stopwatch-+-Clock-icon" sketch:type="MSLayerGroup" transform="translate(19.000000, 17.000000)">
                <g id="Clock-icon" transform="translate(0.000000, 5.000000)" sketch:type="MSShapeGroup">
                    <path d="M19.7838596 0 C2.47304842 0 0 2.5 0 19.9 L0 37.1 C0 54.5 2.5 57 19.8 57 L41.2161404 57 C58.5269504 57 61 54.5 61 37.1 L61 19.9 C61 2.5 58.5 0 41.2 0 L19.7838596 0 L19.7838596 0 Z" id="rect4158" stroke="#5B5B5B" stroke-width="3"/>
                    <g id="Hands" transform="translate(17.632812, 16.884454)">
                        <path d="M0.026502832 4.2 L12.8671875 11.6" id="path4219" stroke="#5B5B5B" stroke-width="3"/>
                        <path d="M12.8671875 11.6 L32.7118814 0.1" id="path4231" stroke="#5B5B5B" stroke-width="2"/>
                        <ellipse id="path4221" fill="#5B5B5B" cx="12.9" cy="10.6" rx="4.4" ry="4.4"/>
                        <path d="M12.5 11.1 L12.5 31.7" id="path4223" stroke="#5B5B5B"/>
                    </g>
                </g>
            </g>
        </g>
    </g>
</svg>

<?xml version="1.0" encoding="UTF-8" standalone="no"?>
<svg xmlns:sketch="http://www.bohemiancoding.com/sketch/ns" xmlns="http://www.w3.org/2000/svg" height="100px" width="100px" version="1.1" xmlns:xlink="http://www.w3.org/1999/xlink" viewBox="0 0 100 100"><!-- Generator: Sketch 3.3.3 (12072) - http://www.bohemiancoding.com/sketch -->
 <title>Placeholder Icons</title>
 <desc>Created with Sketch.</desc>
 <g id="Page-1" fill-rule="evenodd" sketch:type="MSPage" fill="none">
  <g id="Placeholder-Icons" sketch:type="MSArtboardGroup">
   <g id="Timer-+-Stopwatch-+-Clock-icon" transform="translate(19 17)" sketch:type="MSLayerGroup">
    <g id="Clock-icon" sketch:type="MSShapeGroup" transform="translate(0 5)">
     <path id="rect4158" stroke="#5B5B5B" stroke-width="3" d="m19.784 0c-17.311 0-19.784 2.5-19.784 19.9v17.2c0 17.4 2.5 19.9 19.8 19.9h21.416c17.311 0 19.784-2.5 19.784-19.9v-17.2c0-17.4-2.5-19.9-19.8-19.9h-21.416z"/>
     <g id="Hands" transform="translate(17.633 16.884)">
      <path id="path4219" stroke="#5B5B5B" stroke-width="3" d="m0.026503 4.2l12.84 7.4"/>
      <path id="path4231" stroke="#5B5B5B" stroke-width="2" d="m12.867 11.6l19.845-11.5"/>
      <ellipse id="path4221" rx="4.4" ry="4.4" cy="10.6" cx="12.9" fill="#5B5B5B"/>
      <path id="path4223" stroke="#5B5B5B" d="m12.5 11.1v20.6"/>
     </g>
    </g>
   </g>
  </g>
 </g>
</svg>
